packages/foundations/assets/icons/functional/images/audio & video/volume_up_14.svg

<svg width="14" height="14" viewBox="0 0 14 14" fill="none" xmlns="http://www.w3.org/2000/svg">
<g clip-path="url(#clip0_184_444)">
<path fill-rule="evenodd" clip-rule="evenodd" d="M6.29999 2.79999C6.69399 2.79999 6.99999 3.12799 6.99999 3.49999V10.5C7.00134 10.5923 6.98416 10.6839 6.94945 10.7695C6.91475 10.855 6.86324 10.9327 6.79797 10.998C6.7327 11.0632 6.655 11.1147 6.56946 11.1494C6.48392 11.1841 6.39229 11.2013 6.29999 11.2C6.1684 11.1971 6.03997 11.1592 5.92799 11.09L4.00299 9.79999H3.49999C2.33999 9.79999 1.39999 8.85999 1.39999 7.72199V6.32199C1.39999 5.16199 2.33999 4.19999 3.49999 4.19999H4.00299L5.92799 2.93099C6.03346 2.84623 6.16469 2.80001 6.29999 2.79999ZM5.59999 4.81299L4.59399 5.49099C4.47516 5.56281 4.33884 5.60052 4.19999 5.59999H3.49999C3.10599 5.59999 2.79999 5.92799 2.79999 6.29999V7.69999C2.79999 8.09399 3.10599 8.39999 3.49999 8.39999H4.19999C4.3426 8.39624 4.48202 8.44259 4.59399 8.53099L5.59999 9.18699V4.81299ZM8.39999 9.07799C9.09999 9.07799 9.79999 8.02799 9.79999 6.97799C9.79999 5.92799 9.09999 4.89999 8.39999 4.89999C8.04999 4.89999 7.69999 5.22799 7.69999 5.59999C7.69999 6.27799 8.39999 6.27799 8.39999 6.97799C8.39999 7.67799 7.69999 7.67799 7.69999 8.37799C7.69999 8.72799 8.04999 9.07799 8.39999 9.07799ZM9.79999 11.9C9.96935 11.8987 10.1326 11.8366 10.26 11.725C10.9644 11.1402 11.5371 10.4129 11.9404 9.59095C12.3438 8.769 12.5685 7.87101 12.6 6.95599C12.6 5.38099 11.747 3.69599 10.281 2.29599C10.153 2.16949 9.97997 2.09899 9.79999 2.09999C9.61594 2.10503 9.4408 2.1804 9.31061 2.3106C9.18041 2.4408 9.10504 2.61593 9.09999 2.79999C9.09999 2.99699 9.18799 3.19399 9.31899 3.32499C10.5 4.41899 11.2 5.79699 11.2 6.95599C11.1668 7.67139 10.9841 8.3719 10.6638 9.01243C10.3434 9.65296 9.89249 10.2193 9.33999 10.675C9.26491 10.7404 9.20466 10.821 9.16327 10.9116C9.12188 11.0021 9.10031 11.1004 9.09999 11.2C9.09999 11.594 9.42799 11.9 9.79999 11.9Z" fill="#1A1C1F"/>
</g>
<defs>
<clipPath id="clip0_184_444">
<rect width="14" height="14" fill="white"/>
</clipPath>
</defs>
</svg>

<svg xmlns="http://www.w3.org/2000/svg" width="14" height="14" fill="none"><g clip-path="url(#a)"><path fill="#1A1C1F" fill-rule="evenodd" d="M6.3 2.8c.394 0 .7.328.7.7v7a.69.69 0 0 1-.7.7.74.74 0 0 1-.372-.11L4.003 9.8H3.5c-1.16 0-2.1-.94-2.1-2.078v-1.4c0-1.16.94-2.122 2.1-2.122h.503l1.925-1.269A.6.6 0 0 1 6.3 2.8m-.7 2.013-1.006.678A.76.76 0 0 1 4.2 5.6h-.7c-.394 0-.7.328-.7.7v1.4c0 .394.306.7.7.7h.7a.6.6 0 0 1 .394.131l1.006.656zm2.8 4.265c.7 0 1.4-1.05 1.4-2.1S9.1 4.9 8.4 4.9c-.35 0-.7.328-.7.7 0 .678.7.678.7 1.378s-.7.7-.7 1.4c0 .35.35.7.7.7M9.8 11.9a.7.7 0 0 0 .46-.175 6.49 6.49 0 0 0 2.34-4.769c0-1.575-.853-3.26-2.319-4.66A.68.68 0 0 0 9.8 2.1a.72.72 0 0 0-.7.7c0 .197.088.394.219.525C10.5 4.419 11.2 5.797 11.2 6.956a5.13 5.13 0 0 1-1.86 3.719.7.7 0 0 0-.24.525c0 .394.328.7.7.7" clip-rule="evenodd"/></g><defs><clipPath id="a"><path fill="#fff" d="M0 0h14v14H0z"/></clipPath></defs></svg>
